src/images/volume-xmark-solid-full.svg

<?xml version="1.0" encoding="utf-8"?>
<!-- Generator: Adobe Illustrator 26.1.0, SVG Export Plug-In . SVG Version: 6.00 Build 0)  -->
<svg version="1.1" id="Layer_1" xmlns="http://www.w3.org/2000/svg" xmlns:xlink="http://www.w3.org/1999/xlink" x="0px" y="0px"
	 viewBox="0 0 640 640" style="enable-background:new 0 0 640 640;" xml:space="preserve">
<style type="text/css">
	.st0{fill:#FFFFFF;}
</style>
<path class="st0" d="M80,416h48l134.1,119.2c6.4,5.7,14.6,8.8,23.1,8.8c19.2,0,34.8-15.6,34.8-34.8V130.8
	c0-19.2-15.6-34.8-34.8-34.8c-8.5,0-16.7,3.1-23.1,8.8L128,224H80c-26.5,0-48,21.5-48,48v96C32,394.5,53.5,416,80,416z M399,239
	c-9.4,9.4-9.4,24.6,0,33.9l47,47l-47,47c-9.4,9.4-9.4,24.6,0,33.9c9.4,9.3,24.6,9.4,33.9,0l47-47l47,47c9.4,9.4,24.6,9.4,33.9,0
	c9.3-9.4,9.4-24.6,0-33.9l-47-47l47-47c9.4-9.4,9.4-24.6,0-33.9c-9.4-9.3-24.6-9.4-33.9,0l-47,47l-47-47
	C423.5,229.6,408.3,229.6,399,239z"/>
</svg>

<svg xmlns="http://www.w3.org/2000/svg" viewBox="0 0 640 640"><!--!Font Awesome Free 7.1.0 by @fontawesome - https://fontawesome.com License - https://fontawesome.com/license/free Copyright 2025 Fonticons, Inc.--><path d="M80 416L128 416L262.1 535.2C268.5 540.9 276.7 544 285.2 544C304.4 544 320 528.4 320 509.2L320 130.8C320 111.6 304.4 96 285.2 96C276.7 96 268.5 99.1 262.1 104.8L128 224L80 224C53.5 224 32 245.5 32 272L32 368C32 394.5 53.5 416 80 416zM399 239C389.6 248.4 389.6 263.6 399 272.9L446 319.9L399 366.9C389.6 376.3 389.6 391.5 399 400.8C408.4 410.1 423.6 410.2 432.9 400.8L479.9 353.8L526.9 400.8C536.3 410.2 551.5 410.2 560.8 400.8C570.1 391.4 570.2 376.2 560.8 366.9L513.8 319.9L560.8 272.9C570.2 263.5 570.2 248.3 560.8 239C551.4 229.7 536.2 229.6 526.9 239L479.9 286L432.9 239C423.5 229.6 408.3 229.6 399 239z"/></svg>
